build/img/parteners/netflix-logo.svg

<svg width="126" height="48" viewBox="0 0 126 48" fill="none" xmlns="http://www.w3.org/2000/svg">
<g style="mix-blend-mode:luminosity" clip-path="url(#clip0_333_1362)">
<path d="M17.5012 38.0663C15.6171 38.3595 13.6999 38.4474 11.7166 38.6816L5.66728 22.9786V39.3555C3.78318 39.5313 2.06432 39.7656 0.279297 40V10H5.30389L12.1793 27.0217V10H17.5012V38.0663ZM27.9138 20.9863C29.9634 20.9863 33.1036 20.8984 34.9877 20.8984V25.5858C32.6407 25.5858 29.8972 25.5858 27.9138 25.6737V32.6465C31.0212 32.4708 34.1284 32.2362 37.2685 32.1483V36.6597L22.6248 37.6854V10H37.2685V14.6875H27.9138V20.9863ZM56.9366 14.6876H51.4494V36.2501C49.6644 36.2501 47.8793 36.2501 46.1607 36.3085V14.6876H40.6735V10H56.9368L56.9366 14.6876ZM65.531 20.6642H72.7703V25.3516H65.531V35.9864H60.3409V10H75.1172V14.6875H65.531V20.6642ZM83.7116 31.8848C86.7197 31.9432 89.7607 32.1486 92.7028 32.2948V36.9238C87.9759 36.66 83.2489 36.3966 78.4228 36.3085V10H83.7116V31.8848ZM97.1652 37.2461C98.851 37.3341 100.636 37.422 102.355 37.5975V10H97.1652V37.2461ZM125.527 10L118.817 24.2676L125.527 40C123.544 39.7656 121.56 39.4433 119.577 39.1503L115.776 30.4786L111.908 38.4474C109.991 38.1542 108.14 38.0663 106.223 37.8319L113.032 24.0917L106.884 10H112.569L116.04 17.8809L119.742 10H125.527V10Z" fill="#D81F26"/>
</g>
<defs>
<clipPath id="clip0_333_1362">
<rect width="125.241" height="48" fill="white" transform="translate(0.279297)"/>
</clipPath>
</defs>
</svg>

<svg width="126" height="48" fill="none" xmlns="http://www.w3.org/2000/svg"><g style="mix-blend-mode:luminosity" clip-path="url(#a)"><path d="M17.501 38.066c-1.884.293-3.801.381-5.784.616l-6.05-15.703v16.377c-1.884.175-3.603.41-5.388.644V10h5.025l6.875 17.022V10h5.322v28.066Zm10.413-17.08c2.05 0 5.19-.088 7.074-.088v4.688c-2.347 0-5.09 0-7.074.088v6.973c3.107-.176 6.214-.41 9.355-.499v4.512l-14.644 1.025V10h14.644v4.688h-9.355v6.298Zm29.023-6.298h-5.488V36.25c-1.785 0-3.57 0-5.288.059V14.688h-5.488V10h16.264v4.688Zm8.594 5.976h7.24v4.688h-7.24v10.634h-5.19V10h14.776v4.688h-9.586v5.976Zm18.18 11.22c3.009.06 6.05.265 8.992.41v4.63c-4.727-.264-9.454-.527-14.28-.615V10h5.289v21.885Zm13.454 5.362c1.686.088 3.471.176 5.19.351V10h-5.19v27.246ZM125.527 10l-6.71 14.268L125.527 40c-1.983-.234-3.967-.557-5.95-.85l-3.801-8.671-3.868 7.968c-1.917-.293-3.768-.38-5.685-.615l6.809-13.74L106.884 10h5.685l3.471 7.88 3.702-7.88h5.785Z" fill="#D81F26"/></g><defs><clipPath id="a"><path fill="#fff" transform="translate(.28)" d="M0 0h125.241v48H0z"/></clipPath></defs></svg>
